X:239
T:B239-  Jenny, come tye my cravat
Q:1/4=120
L:1/4
M:3/4
K:D
A|FDF/2G/2|A3/2G/2F|ECE/2F/2|G3/2F/2E|\
FDF/2G/2|A3/2B/2A|f/2g/2af|e2||d|\
f/2g/2af|g3/2f/2e|cAe/2f/2|f2e|\
f/2g/2af|g3/2f/2e|cAc|d2|]

